icons/outline/chart-grid-dots.svg

<!--
tags: [graph, diagram, analytics, statistics, data]
category: Charts
unicode: "f4c2"
version: "1.98"
-->
<svg
  xmlns="http://www.w3.org/2000/svg"
  width="24"
  height="24"
  viewBox="0 0 24 24"
  fill="none"
  stroke="currentColor"
  stroke-width="2"
  stroke-linecap="round"
  stroke-linejoin="round"
>
  <path d="M18 6m-2 0a2 2 0 1 0 4 0a2 2 0 1 0 -4 0m-10 6m-2 0a2 2 0 1 0 4 0a2 2 0 1 0 -4 0m2 6m-2 0a2 2 0 1 0 4 0a2 2 0 1 0 -4 0m14 0m-2 0a2 2 0 1 0 4 0a2 2 0 1 0 -4 0m-8 0h8m2 2v1m0 -18v1m-12 16v1m0 -11v-7m6 0v18m6 -13v8m-10 -4h13m0 -6h-1m-4 0h-13m0 6h1m16 6h1m-18 0h1m2 -4v2" />
</svg>

<!--
tags: [graph, diagram, analytics, statistics, data]
category: Charts
unicode: "f4c2"
version: "1.98"
-->
<svg
  xmlns="http://www.w3.org/2000/svg"
  width="24"
  height="24"
  viewBox="0 0 24 24"
  fill="none"
  stroke="currentColor"
  stroke-width="2"
  stroke-linecap="round"
  stroke-linejoin="round"
>
    <path d="M18 6m-2 0a2 2 0 1 0 4 0a2 2 0 1 0 -4 0M6 12m-2 0a2 2 0 1 0 4 0a2 2 0 1 0 -4 0M6 18m-2 0a2 2 0 1 0 4 0a2 2 0 1 0 -4 0M18 18m-2 0a2 2 0 1 0 4 0a2 2 0 1 0 -4 0M8 18h8M18 20v1M18 3v1M6 20v1M6 10v-7M12 3v18M18 8v8M8 12h13M21 6h-1M16 6h-13M3 12h1M20 18h1M3 18h1M6 14v2" />
</svg>
